X:1
T:The Merry Lads of New Pitsligo
T:The Merry Lads of New Pitsligo
T:Alexander Walker
C:Alexander Walker
L:1/8
Q:1/8=128
M:4/4
K:A
V:1 treble 
V:1
|: C | A,>C E>C D>F E2 | A,>C E>C d/c/B/A/ B>c | A,>C E>C D>F Ec/d/ | e>c d>B c<A AC | %5
 A,>C E>C D>F E2 | A,>C E>C d/c/B/A/ B>c | A,>C E>C D>F Ec/d/ | e>c d>B c<A Ad | c>e A>e c<e a>c | %10
 d>B c>A B<B, B,>d | c>e A>e c<e a>c | A>F E>D C<A, A,>D | c>e A>e c<e a>c | d>B c>A B<B, B,>d | %15
 c>A c<a d>B d<b | g<e b>g a<A A :| %17

